X:2002
T:Älvrospolska efter Anders Eriksson Moberg
R:Polska
O:Älvros, Härjedalen
S:efter Anders Eriksson Moberg
B:EÖ nr 651
Z:abc-transkr. av Lennart Sohlman
M:3/4
L:1/8
K:Dm
(fg/f/) e2 d2|^c=B/c/ dd eg|f/e/f/g/ af ed|[1(^c/d/)(e/c/) A4|:[2(^c/d/)(e/c/)d4:||:!
aA A>a ab/a/|gB B>g ga/g/|fa/f/ ef/e/ de/f/|[1e^c dA FD:|[2e>^c d4:|]
(:musicend:)
(:music:)
